X:1
T:12 ÉTUDES
T:12 ÉTUDES
T:Op. 10 No. 5
T:F. Chopin
C:F. Chopin
%%score { ( 1 4 ) | ( 2 3 ) }
L:1/8
Q:1/4=116
M:2/4
K:Gb
V:1 treble nm="Piano" snm="Pno."
V:4 treble 
V:2 bass 
V:3 bass 
V:1
!f!"^brillante""^Vivace"!8va(! (3(!3!g'/!5!b'/!1!d'/) (3(!4!g'/!2!e'/!4!g'/) (3(!1!d'/!5!g'/!2!b/)!8va)! (3(!3!d'/!1!g/!4!b/) | %1
!p! (3!2!g/!4!b/!1!d/ (3!4!g/!2!e/!4!g/ (3!1!d/!5!g/!2!B/ (3!3!d/!1!G/!3!B/ | %2
"^sempre legato" (3!1!D/!5!d/!2!A/ (3!4!d/!1!A/a/"_cresc." (3A/a/!2!e/ (3!4!a/!1!e/e'/ | %3
 (3e/e'/!2!a/!8va(! (3!4!e'/!1!a/!5!a'/ (3a/a'/!2!d'/ (3!4!a'/!1!d'/!5!d''/ | %4
!f! (3g'/b'/d'/ (3!4!g'/!2!e'/g'/ (3!1!d'/!5!g'/!2!b/!8va)! (3!3!d'/!1!g/!4!b/ | %5
!p! (3!2!g/!4!b/!1!d/ (3!4!g/!2!e/g/ (3!1!d/!5!g/!2!B/ (3!3!d/!1!G/!3!B/ | %6
 (3!1!E/e/!2!A/ (3!4!e/!1!A/!<(!!5!a/ (3!2!e/!4!a/!1!e/!8va(! (3!5!e'/!1!a/!4!a'/!<)! | %7
"_poco rall." (3b/b'/b/ (3b'/!>(!b/b'/ (3b/b'/b/!>)! (3b'/!pp!b/b'/ | %8
!f!"^a tempo" (3!3!g'/!5!b'/!1!d'/ (3!4!g'/!2!e'/!4!g'/ (3!1!d'/!5!g'/!2!b/!8va)! (3!3!d'/!1!g/!4!b/ | %9
!p!!p! (3!2!g/!4!b/!1!d/ (3!4!g/!2!e/g/ (3!1!d/!5!g/!2!B/ (3!3!d/!1!G/!3!B/ | %10
 (3!1!D/!5!d/!2!A/ (3!4!d/!1!A/a/"_cresc." (3A/a/!2!e/ (3!4!a/!1!e/e'/ | %11
 (3e/e'/!2!a/!8va(! (3!4!e'/!1!a/!5!a'/ (3a/a'/!2!d'/ (3!4!a'/!1!d'/!5!d''/ | %12
!f! (3!2!g'/!4!b'/!1!d'/ (3!4!g'/!2!e'/!4!g'/ (3!1!d'/!5!g'/!2!b/!8va)! (3!3!d'/!1!g/!4!b/ | %13
!p! (3!2!g/!4!b/!1!d/ (3!4!g/!2!e/g/ (3!1!d/!5!g/!2!B/ (3!3!d/!1!G/!3!B/ | %14
 (3!1!E/e/!2!A/ (3!4!e/!1!A/!5!a/"_cresc." (3!2!e/!4!a/!1!e/ (3!5!e'/a/e'/ | %15
 (3e/!5!e'/!2!a/ (3e'/!1!d/!4!d'/ (3!2!a/!4!d'/!1!a/!8va(! (3!4!a'/!1!d'/d''/ | %16
!p! (3!2!a'/!4!b'/!3!a'/ (3!1!e'/e''/e'/!>(! (3!2!d'/!4!e'/!3!d'/!>)! (3a/a'/a/!8va)! | %17
!>(! (3!2!a/!4!b/!3!a/!>)! (3e/e'/e/ (3!2!d/!4!e/!3!d/!>!!1!A- | %18
 (3A/!2!e/!4!a/ (3!5!b/!4!a/!2!e/ (3!1!d/!2!e/!4!d'/ (3!5!e'/d'/b/ | %19
!8va(! (3a/e'/!4!a'/ (3b'/a'/e'/ (3d'/a'/!4!d''/ (3e''/d''/b'/ | %20
!p! (3!1!a'/!3!b'/!2!a'/ (3!1!e'/e''/e'/!>(! (3!2!d'/!4!e'/!3!d'/!>)! (3a/a'/a/!8va)! | %21
!>(! (3!2!a/!4!b/!3!a/!>)! (3e/e'/e/ (3!2!d/!4!e/!3!d/(!>!!1!A | %22
 (3A/)(!4!a/!2!g/ (3!3!a/!1!g/!2!a/ (3!5!g'/)(!2!a/!1!g/ (3!4!a/!2!g/!3!a/ | %23
 (3!1!A/)(!4!a/!2!g/ (3!3!a/!1!g/!2!a/ (3!5!g'/)(!2!a/!1!g/ (3!4!a/!2!g/!3!a/ | %24
 (3!1!B/)(!4!b/!2!a/ (3!3!b/!1!a/!2!b/ (3!5!g'/)(!2!b/!1!a/ (3!4!b/"_poco a poco cresc."!2!a/b/ | %25
 (3!1!B/)(!4!b/!2!a/ (3!3!b/!1!a/!2!b/ (3!5!g'/)(!2!b/!1!a/ (3!4!b/!2!a/b/ | %26
 (3!1!g/)(!2!b/!1!g/ (3.!5!b'/!2!b/!1!g/ (3.!5!a'/b/g/ (3.!5!g'/b/g/ | %27
 (3.!3!d'/)(b/g/ (3.b'/b/g/ (3.a'/b/g/ (3.!5!g'/!3!b/!2!g/ | %28
 (3!1!d/)(!4!d'/!2!b/!8va(! (3!4!d'/!1!d'/!4!d''/"_cresc." (3!2!b'/)(!4!d''/!1!d'/!8va)! (3!4!d'/b/d'/ | %29
 (3d/)(!4!d'/b/!8va(! (3!4!d'/!1!d'/!4!d''/ (3!2!b'/)(d''/!1!d'/!8va)! (3!4!d'/b/d'/) | %30
 (3d/(!4!d'/!2!b/!8va(! (3!4!d'/!1!d'/!4!d''/ (3!2!a'/)(!4!d''/!1!d'/!8va)! (3!4!d'/!2!b/d'/ | %31
 (3!1!d/)(!5!d'/!2!g/ (3d'/!1!d/!5!d/ (3!2!G/)(d/!1!D/[I:staff +1] (3!5!D/!2!G,/D/) | %32
"^sempre legatissimo" (3(!1!E,/!f!!2!G,/!4!D/!<(![I:staff -1] (3E/!1!G,/!2!D/ (3E/G/!1!D/ (3E/G/d/ | %33
 (3!1!E/G/!4!d/ (3e/!1!G/!2!d/ (3e/g/!1!d/ (3!2!e/!5!d'/!3!g/!<)! | %34
!>(! (3!1!e/!2!g/!5!e'/ (3d'/g/e/ (3!5!d'/!3!g/!2!e/ (3!1!d/!5!g/e/ | %35
 (3d/G/!5!e/!>)!"_dim." (3d/G/E/ (3!5!d/G/E/ (3!1!D/!4!G/!2!E/) | %36
 (3(!1!A,/!<(!E/G/ (3A/!1!E/G/ (3A/e/!1!G/ (3A/e/g/ | %37
 (3!1!A/e/g/ (3a/!1!e/g/ (3a/e'/!1!g/ (3a/!5!g'/!4!e'/!<)! | %38
!>(! (3!2!a/!1!g/!5!e'/ (3!3!a/g/e/ (3!5!a/g/e/ (3A/!5!g/!4!e/ | %39
 (3A/!1!G/e/!>)!"_dim." (3A/G/E/ (3!5!A/G/E/ (3A,/!4!G/!2!E/) | %40
!p! (3(!1!D/!4!d/!2!A/ (3!3!d/!1!A/!5!a/ (3!2!d/a/!1!A/ (3!3!d/!1!A/!4!d/ | %41
 (3!1!D/!4!d/!2!A/ (3!3!d/!1!A/!5!a/ (3!2!d/a/!1!A/ (3!3!d/!1!A/!4!d/) | %42
"^sempre legato" (3D/!5!d/A/ (3d/!1!d/d'/ (3!2!a/!5!d'/!1!d/ (3!4!d/!2!A/d/ | %43
 (3!1!A/!5!a/!2!d/"_cresc." (3!5!a/!1!a/a'/ (3d'/a'/a/ (3!5!a/!2!d/a/ | %44
 (3!1!d/!2!e/!1!d/!8va(! (3!5!e'/!1!d'/!5!e''/ (3!4!d''/e''/d''/ (3!1!d'/!5!e'/!4!d'/!8va)! | %45
 (3!1!d/!2!e/!1!d/!8va(! (3!5!e'/!1!d'/e''/ (3d''/e''/d''/ (3d'/e'/d'/ | %46
 (3!4!d''/!5!e''/d''/ (3!1!d'/!2!e'/d'/!<(! (3d''/e''/d''/ (3d'/e'/d'/!<)! | %47
 (3!4!d''/!>(!e''/d''/ (3d'/e'/d'/!>)! (3d''/e''/d''/ (3d'/e'/d'/ | %48
!f! (3!3!g'/!5!b'/!1!d'/ (3!4!g'/!2!e'/!4!g'/ (3!1!d'/!5!g'/!2!b/!8va)! (3!3!d'/!1!g/!4!b/ | %49
!p! (3!2!g/!4!b/!1!d/ (3!4!g/!2!e/!4!g/ (3!1!d/!5!g/!2!B/ (3!3!d/!1!G/!3!B/ | %50
 (3!1!D/!5!d/!2!A/ (3!4!d/!1!A/a/"_cresc." (3A/a/!2!e/ (3!4!a/!1!e/e'/ | %51
 (3e/e'/!2!a/!8va(! (3!4!e'/!1!a/!5!a'/ (3a/a'/!2!d'/ (3!4!a'/!1!d'/!5!d''/ | %52
!f! (3!2!g'/!4!b'/!1!d'/ (3!4!g'/!2!e'/g'/ (3!1!d'/!5!g'/!2!b/!8va)! (3!3!d'/!1!g/!4!b/ | %53
!p! (3!2!g/b/!1!d/ (3!4!g/!2!e/g/ (3!1!d/!5!g/!2!B/ (3!3!d/!1!G/!3!B/ | %54
 (3!1!E/!5!e/!2!A/ (3!4!e/!1!A/!5!a/"_cresc." (3B/b/B/ (3b/B/b/ | %55
 (3e/e'/!2!a/!8va(! (3!4!e'/!1!a/a'/ (3b/!>!b'/b/ (3b'/b/b'/ | %56
 (3!>!b/b'/e'/ (3!5!b'/!1!a/!4!a'/ (3!>!a/!5!a'/d'/ (3a'/!1!g/!4!g'/!8va)! | %57
 (3!>!d/!5!d'/!2!a/!8va(! (3!4!d'/!1!a/a'/ (3!>!!1!g/!4!g'/!2!d'/ (3!3!g'/!1!d'/d''/ | %58
 (3!>!!1!b/!5!b'/e'/ (3b'/!1!a/!4!a'/ (3!>!a/!5!a'/d'/ (3a'/g/!4!g'/!8va)! | %59
 (3!>!d/!5!d'/a/!8va(! (3!4!d'/!1!a/a'/ (3!>!g/!4!g'/d'/ (3!3!g'/!1!d'/d''/ | %60
 (3!>!!1!b/!5!b'/!2!e'/ (3!5!b'/!1!a/!4!a'/ (3!>!!1!b/!5!b'/!2!e'/ (3!5!b'/a/!4!a'/ | %61
 (3b/!5!b'/!2!e'/ (3b'/"_cresc."a/!4!a'/ (3b/!5!b'/e'/ (3b'/a/!4!a'/ | %62
 (3(!2!d'/!5!b'/!1!a/ (3!4!a'/!2!d'/!5!b'/ (3a/!4!a'/d'/ (3b'/a/a'/ | %63
 (3d'/b'/a/ (3a'/d'/b'/"_poco rallent." (3a/a'/d'/ (3b'/a/!4!a'/ | %64
 (3:2:4!>!!5!e''/)z/4(!3!d''/4!pp!!2!b'/ (3!1!a'/"_delicato"!4!g'/!3!e'/!8va)! (3!2!d'/!1!b/!4!a/ (3!3!g/"_smorz."!2!e/!1!d/ | %65
 !4!A2 B>A |!p!"^a tempo" G) z"_legato"!8va(! (3!2!a'/!4!b'/!3!a'/ (3d'/d''/d'/ | %67
 (3!2!d'/!4!e'/!3!d'/ (3g/g'/g/!8va)! (3!2!a/!4!b/!3!a/!>!d- | %68
 (3d/!2!g/a/ (3b/a/g/"_cresc." (3d/!2!a/!4!d'/ (3e'/d'/a/ | %69
!8va(! (3g/!2!d'/!4!g'/ (3a'/g'/e'/ (3d'/!2!a'/!4!d''/ (3e''/d''/a'/ | %70
!p! (3!1!g'/!3!a'/!2!g'/ (3!1!d'/d''/d'/ (3!2!d'/!4!e'/!3!d'/ (3!1!a/a'/a/!8va)! | %71
 (3!2!a/!4!b/!3!a/ (3!1!g/g'/g/ (!>!!2-1!d2 | %72
 (3d/)!2!g/a/ (3b/a/g/"_cresc." (3d/!2!a/!4!d'/ (3e'/d'/a/ | %73
!8va(! (3g/!2!d'/!4!g'/ (3a'/g'/d'/ (3a/!2!d'/!4!a'/ (3b'/a'/d'/ | %74
!f! (3!5!b'/!2!d'/!4!a'/ (3!1!b/!5!a'/!2!d'/ (3!4!g'/!1!b/!5!e'/!8va)! (3!2!a/!4!d'/!1!d/ | %75
 (3!5!b/!2!d/!4!a/ (3!1!B/!5!a/!2!d/ (3!4!g/!1!B/!5!e/ (3!2!A/!4!d/!1!D/ | %76
 (3!5!B/!2!D/!4!A/ (3!1!B,/!5!A/!2!D/ (3!4!G/!1!B,/!5!E/[K:bass] (3!2!A,/!4!D/!1!D,/ | %77
 (3!3!B,/!2!G,/!5!E/(3!1!D,/!4!D/!2!A,/ (3!3!B,/!2!G,/!5!E/ (3!1!D,/!4!D/!2!A,/ | %78
 .B, (3(!>!!5
3![B,D]/A,/G,/)[K:treble] (3(!>!!5
3![EG]/D/B,/) (3(!>![GB]/E/D/) | %79
 (3(!>![Bd]/A/G/) (3(!>![eg]/d/B/) (3(!>![gb]/e/d/) (3(!>![bd']/a/g/) | %80
!8va(! (3(!>![e'g']/d'/b/)"_cresc." (3([g'b']/e'/d'/) (3([e'g']/d'/b/) (3([g'b']/e'/d'/) | %81
 (3([e'g']/d'/b/) (3([g'b']/e'/d'/) (3([e'g']/d'/b/) (3([g'b']/e'/d'/) | %82
 (3.!5
2![bg']/!8va)! z/!ff! .[gg']/ (3.[ee']/.[dd']/.[Bb]/ (3.[Aa]/.[Gg]/.[Ee]/ (3.[Dd]/.[B,B]/.[A,A]/ | %83
 .[G,G] z!8va(! !arpeggio![bd'g'b']2!8va)! |[K:bass] !fermata!G,4 |] %85
V:2
 .!4![G,B,DG].!3![G,CEG].!4![G,B,DG] z |!ped! .[G,,G,] .!4![CEG]!ped-up!.!3![B,DG] z | %2
!ped! .[D,,D,] .!4![A,DF]!ped-up!!ped!.!3![A,CE] .!5!A,,!ped-up! | %3
!ped! z .[A,CE]!ped-up!!ped!.[A,CD] z!ped-up! | %4
!ped! .!4![G,B,DG].!3![G,CEG]!ped-up!.!4![G,B,DG] z |!ped! .[G,,G,] .!4![CEG]!ped-up!.!3![B,DG] z | %6
!ped! .C, !>!!2!!1![A,E]2 C,!ped-up! | %7
!ped! !arpeggio!.[B,,F,=D][K:treble] !arpeggio!.[B,F=d] z2!ped-up! | %8
 .!4![G,B,_DG].!3![G,CEG].!4![G,B,DG] z |[K:bass]!ped! .[G,,G,] .!4![CEG]!ped-up!.!3![B,DG] z | %10
!ped! .[D,,D,] .!4![A,DF]!ped-up!!ped!.!3![A,CE] .!5!A,, | %11
!ped! z .[A,CE]!ped-up!!ped!.[A,CD] z!ped-up! | %12
!ped! .!4![G,B,DG].!3![G,CEG].!4![G,B,DG] z!ped-up! |!ped! .[G,,G,] .!4![CEG]!ped-up!.!3![B,DG] z | %14
!ped! .=C, !>!!3![A,G]2!ped-up! .A,, |!ped! .!5!D,.[A,F] z2!ped-up! | %16
[K:treble] (!4![=CGA][A,GA]) (!>!!3![DFB][A,FA]) | (!>!!4![=CGB][A,GA]) (!3![DF]A,) | %18
[K:bass]!ped! .=C, .!4![A,EG]!ped-up!!ped!.!3![A,DF] .D,!ped-up! | %19
!ped! .A,,.!3![A,=CG]!ped-up!!ped! .D,,.!4![A,DF]!ped-up! | %20
!ped! .A,,[K:treble] .!4![=CGA](!>!!3![DFB][A,FA])!ped-up! | ((!>!!4![=CGB][A,GA])) ((!3![DF]A,)) | %22
[K:bass]!ped! .=C,.!4![A,EG]!ped-up! z (!5!=C,, | .=C,).!4![A,EG] z ([=C,,=C,] | %24
!ped! .!4![D,,D,]) .!3![B,DG] (!5![=C,,=C,]!4![D,,D,]!ped-up! | %25
!ped! .!5![=D,,=D,]) .[B,G] (!4![^C,,^C,]!ped-up!!5![D,,D,] | %26
!ped! .!4![E,,E,]) !>!!3!!1![B,G]2!ped-up! (!4![E,,E,] | %27
!ped! !5![_F,,_F,]) !>!!3!!1![B,G]2 ([=E,,=E,]!ped-up! | %28
!ped! .!4![=F,,=F,])[B,DF] (!5![=E,,=E,]!4![F,,F,]!ped-up! | %29
!ped! .!3![G,,G,])!3![B,DF]!ped-up! (!5![=F,,=F,]!4![G,,G,] | %30
!ped! .!5![=G,,=G,])[G,D_F]!ped-up!!ped! .[A,,A,][A,DF] | %31
!ped! .[__B,,__B,][B,EG] z .[__B,,,B,,]!ped-up! |!ped! z4!ped-up! | z2 !2![A,DG]>!3![A,DG] | %34
 !2![A,DG]4 | z4 |!ped! z4!ped-up! | z2[K:treble] [A,=CGA]>[A,CGA] | [A,=CGA]4 | z4 | %40
[K:bass]!ped! .D,, z (!3!!1![A,F]2-!ped-up! | [A,F]2 !4!!1![=G,=E]>!3!!1![A,F] | %42
!ped! .D,) z!ped-up! (!3!!1![A,F]2- | [A,F]2 !4!!1![=G,=E]>!3!!1![A,F] | %44
!ped! .D,)[K:treble]!<(! (!5![A,DF]!ped-up!!4![__B,D_G]!3-4![_B,D=G]!<)! | %45
!>(! !3![CDA]2 !4![B,D=G]!5![__B,D_G]!>)! | %46
!ped! .!3![A,DF])[K:bass] .D,!ped-up![K:treble] (!1!A!1!B | !1!c2 BA) | %48
 .!4![G,B,DG].!3![G,CEG].!4![G,B,DG] z | %49
[K:bass]!ped! .[G,,G,] .!4![CEG]!ped-up!.!3![B,DG]!ped-up! z | %50
!ped! .[D,,D,] .!4![A,DF]!ped-up!!ped!.!3![A,CE] .!5!A,, | %51
!ped! z .[A,CE]!ped-up!!ped!.[A,CD] z!ped-up! | %52
!ped! .!4![G,B,DG].!3![G,CEG].!4![G,B,DG] z!ped-up! |!ped! .[G,,G,] .!4![CEG]!ped-up!.!3![B,DG] z | %54
!ped! .C,!>(!(!3!!1![A,E]!ped-up!!>)!!ped-up!!ped! !5!!2!!1![F,B,=D])(!4!B,, | %55
!ped! .!5!C,)!>(!!>(!((!3!!1![A,E]!>)!!>)!!ped-up!!ped! !5!!1![F,B,=D])).!4!B,,!ped-up! | %56
!ped! .!5!C,[K:treble].!3![CEA][K:bass]!ped-up!!ped! ._D,[K:treble].!4![B,DG]!ped-up! | %57
[K:bass]!ped! .C,[K:treble].!4![CDFA][K:bass]!ped-up!!ped! .B,,[K:treble].[B,DGB]!ped-up! | %58
[K:bass]!ped! .C,[K:treble].!4![CEA][K:bass]!ped-up!!ped! .D,[K:treble].[B,DG]!ped-up! | %59
[K:bass]!ped! .C,[K:treble].!4![CDFA][K:bass]!ped-up!!ped! .B,,[K:treble].[B,DGB]!ped-up! | %60
[K:bass]!ped! .C, !>![A,EA]2 !5!C,!ped-up! |!ped! .=C, !>!![1![A,EGA]2 C,!ped-up! | %62
!ped! !4!D,2[K:treble] [A,DGA]2!ped-up! | !3![GAd]2 z2 |[K:bass]!ped!{/D,,} !3![D,A,DG]4!ped-up! | %65
!ped! [D,A,C]4!ped-up! |[K:treble] (!4![B,G](!2!D)!3!!1![CA]!4!!1![A,F] | %67
 [B,G]!2!D)(!3!!1![CA]!4!!1![A,F] |[K:bass] [G,B,G]) z (!4![F,CE][D,D]) | %69
 (!3![G,B,E][D,D]) (!4![F,CE][D,D]) |[K:treble] (!4![B,G](!2!D)!3!!1![CA]!4!!1![A,F] | %71
 [B,G]!2!D)(!3!!1![CA]!4!!1![A,F] |[K:bass] [G,B,G])(D !>!!4![F,CE][D,D]) | %73
 (!>!!3![G,B,E][D,D]) (!>!!4![F,CE][D,D]) |[K:treble] !arpeggio!!>![G,DB]2 z[K:bass] (!>![D,A,CF] | %75
 !>!!4![G,B,G]2) z (!arpeggio!!>![D,,C,F,] | !4![G,,B,,G,]2) z (!2!D,, | %77
 .[G,,,G,,]).D,,.[G,,,G,,].D,, | .[G,,,G,,] z z (3(G,,/D,/B,/) | %79
 (3(G,,/D,/B,/) (3(B,,/!2!G,/D/) (3(D,/!2!B,/G/)[K:treble] (3(G,/D/B/) | %80
 (3(B,/!2!G/d/) (3(!5!D/B/g/) (3(!4!G/B/g/) (3(!5!D/B/g/) | %81
 (3(!4!G/B/g/) (3(!5!D/B/g/) (3(!4!G/B/g/) (3(!5!D/B/g/) | %82
 (3.!4!G/ z/[K:bass] .[G,G]/ (3.[E,E]/.[D,D]/.[B,,B,]/ (3.[A,,A,]/.[G,,G,]/.[E,,E,]/ (3.[D,,D,]/.[B,,,B,,]/.[A,,,A,,]/ | %83
!ped! .[G,,,G,,] z[K:treble] !arpeggio![G,DB]2!ped-up! |[K:bass] !fermata![G,,,G,,]4 |] %85
V:3
 x4 | x4 | x4 | !5!D,3 x | x4 | x4 | x4 | x[K:treble] x3 | x4 |[K:bass] x4 | x4 | !5!D,3 x | x4 | %13
 x4 | x4 | x4 |[K:treble] x4 | x4 |[K:bass] x4 | x4 | x[K:treble] x3 | x4 |[K:bass] x4 | x4 | x4 | %25
 x4 | x4 | x4 | x4 | x4 | x4 | x4 | !4![A,,,A,,]4 | x4 | x4 | x4 | [A,,,A,,]4 | x2[K:treble] x2 | %38
 x4 | x4 |[K:bass] x4 | x4 | x4 | x4 | x[K:treble] x3 | x4 | x[K:bass] x[K:treble] [CDF]2 | %47
 [CDF]4 | x4 |[K:bass] x4 | x4 | !5!D,3 x | x4 | x4 | x4 | x4 | %56
 x[K:treble] x[K:bass] x[K:treble] x |[K:bass] x[K:treble] x[K:bass] x[K:treble] x | %58
[K:bass] x[K:treble] x[K:bass] x[K:treble] x |[K:bass] x[K:treble] x[K:bass] x[K:treble] x | %60
[K:bass] x4 | x4 | x2[K:treble] x2 | x4 |[K:bass] x4 | x4 |[K:treble] G,4 | G,4 |[K:bass] x4 | x4 | %70
[K:treble] G,4 | G,4 |[K:bass] x4 | x4 |[K:treble] x3[K:bass] x | x4 | x4 | x4 | x4 | %79
 x3[K:treble] x | x4 | x4 | x2/3[K:bass] x10/3 | x2[K:treble] x2 |[K:bass] x4 |] %85
V:4
!8va(! x3!8va)! x | x4 | x4 | x!8va(! x3 | x3!8va)! x | x4 | x3!8va(! x | x4 | x3!8va)! x | x4 | %10
 x4 | x!8va(! x3 | x3!8va)! x | x4 | x4 | x3!8va(! x | x4!8va)! | x4 | x4 |!8va(! x4 | x4!8va)! | %21
 x4 | x4 | x4 | x4 | x4 | x4 | x4 | x!8va(! x2!8va)! x | x!8va(! x2!8va)! x | x!8va(! x2!8va)! x | %31
 x4 | x4 | x4 | x4 | x4 | x4 | x4 | x4 | x4 | x4 | x4 | x4 | x4 | x!8va(! x3!8va)! | x!8va(! x3 | %46
 x4 | x4 | x3!8va)! x | x4 | x4 | x!8va(! x3 | x3!8va)! x | x4 | x4 | x!8va(! x3 | x4!8va)! | %57
 x!8va(! x3 | x4!8va)! | x!8va(! x3 | x4 | x4 | x4 | x4 | x2!8va)! x2 | !3
2![EG]2 !2
1![DF]2 | %66
 x2!8va(! x2 | x2!8va)! x2 | x4 |!8va(! x4 | x4!8va)! | x4 | x4 |!8va(! x4 | x3!8va)! x | x4 | %76
 x3[K:bass] x | x4 | x2[K:treble] x2 | x4 |!8va(! x4 | x4 | x/3!8va)! x11/3 | x2!8va(! x2!8va)! | %84
[K:bass] x4 |] %85

